packages/dnb-ui-lib/assets/icons/move_medium.svg

<svg width="24" height="24" viewBox="0 0 24 24" fill="none" xmlns="http://www.w3.org/2000/svg">
<path d="M23.25 9.74655H12.7495C11.755 9.74655 10.8012 10.1416 10.0979 10.8449C9.3947 11.5481 8.99963 12.5019 8.99963 13.4964M23.25 9.74655L20.2502 6.74667M23.25 9.74655L20.2502 12.7464M17.2503 5.24673C17.2503 4.84893 17.0922 4.46741 16.811 4.18612C16.5297 3.90482 16.1481 3.7468 15.7503 3.7468H2.25088C1.85308 3.7468 1.47156 3.90482 1.19027 4.18612C0.908975 4.46741 0.750946 4.84893 0.750946 5.24673V18.7462C0.750946 19.144 0.908975 19.5255 1.19027 19.8068C1.47156 20.0881 1.85308 20.2461 2.25088 20.2461H15.7503C16.1481 20.2461 16.5297 20.0881 16.811 19.8068C17.0922 19.5255 17.2503 19.144 17.2503 18.7462V14.2464" stroke="black" stroke-width="1.5" stroke-linecap="round" stroke-linejoin="round"/>
</svg>

<svg width="24" height="24" viewBox="0 0 24 24" fill="none" xmlns="http://www.w3.org/2000/svg"><path d="M23.25 9.747h-10.5A3.75 3.75 0 009 13.497m14.25-3.75l-3-3m3 3l-3 3m-3-7.5a1.5 1.5 0 00-1.5-1.5H2.25a1.5 1.5 0 00-1.5 1.5v13.5a1.5 1.5 0 001.5 1.5h13.5a1.5 1.5 0 001.5-1.5v-4.5" stroke="#000" stroke-width="1.5" stroke-linecap="round" stroke-linejoin="round"/></svg>
